svgs/solid/crosshairs.svg

<svg xmlns="http://www.w3.org/2000/svg" viewBox="0 0 512 512"><!--! Font Awesome Pro 6.4.2 by @fontawesome - https://fontawesome.com License - https://fontawesome.com/license (Commercial License) Copyright 2023 Fonticons, Inc. --><path d="M256 0c17.7 0 32 14.3 32 32V42.4c93.7 13.9 167.7 88 181.6 181.6H480c17.7 0 32 14.3 32 32s-14.3 32-32 32H469.6c-13.9 93.7-88 167.7-181.6 181.6V480c0 17.7-14.3 32-32 32s-32-14.3-32-32V469.6C130.3 455.7 56.3 381.7 42.4 288H32c-17.7 0-32-14.3-32-32s14.3-32 32-32H42.4C56.3 130.3 130.3 56.3 224 42.4V32c0-17.7 14.3-32 32-32zM107.4 288c12.5 58.3 58.4 104.1 116.6 116.6V384c0-17.7 14.3-32 32-32s32 14.3 32 32v20.6c58.3-12.5 104.1-58.4 116.6-116.6H384c-17.7 0-32-14.3-32-32s14.3-32 32-32h20.6C392.1 165.7 346.3 119.9 288 107.4V128c0 17.7-14.3 32-32 32s-32-14.3-32-32V107.4C165.7 119.9 119.9 165.7 107.4 224H128c17.7 0 32 14.3 32 32s-14.3 32-32 32H107.4zM256 224a32 32 0 1 1 0 64 32 32 0 1 1 0-64z"/></svg>

<svg xmlns="http://www.w3.org/2000/svg" viewBox="0 0 512 512"><!--! Font Awesome Pro 6.1.1 by @fontawesome - https://fontawesome.com License - https://fontawesome.com/license (Commercial License) Copyright 2022 Fonticons, Inc. --><path d="M224 256C224 238.3 238.3 224 256 224C273.7 224 288 238.3 288 256C288 273.7 273.7 288 256 288C238.3 288 224 273.7 224 256zM256 0C273.7 0 288 14.33 288 32V42.35C381.7 56.27 455.7 130.3 469.6 224H480C497.7 224 512 238.3 512 256C512 273.7 497.7 288 480 288H469.6C455.7 381.7 381.7 455.7 288 469.6V480C288 497.7 273.7 512 256 512C238.3 512 224 497.7 224 480V469.6C130.3 455.7 56.27 381.7 42.35 288H32C14.33 288 0 273.7 0 256C0 238.3 14.33 224 32 224H42.35C56.27 130.3 130.3 56.27 224 42.35V32C224 14.33 238.3 0 256 0V0zM224 404.6V384C224 366.3 238.3 352 256 352C273.7 352 288 366.3 288 384V404.6C346.3 392.1 392.1 346.3 404.6 288H384C366.3 288 352 273.7 352 256C352 238.3 366.3 224 384 224H404.6C392.1 165.7 346.3 119.9 288 107.4V128C288 145.7 273.7 160 256 160C238.3 160 224 145.7 224 128V107.4C165.7 119.9 119.9 165.7 107.4 224H128C145.7 224 160 238.3 160 256C160 273.7 145.7 288 128 288H107.4C119.9 346.3 165.7 392.1 224 404.6z"/></svg>
